X: 14
T: Merrily Kiss The Quaker
Z: RheaP
S: https://thesession.org/tunes/70#setting46284
R: slide
M: 12/8
L: 1/8
K: Ddor
|:A|def A2f|g2e fdB|def ABd|eee edB|
def A2f|g2e fdB|def A2B|ddd d2:|
e|fdd edd|fdd edB|def ABd|eee ede|
fdd edd|fdd edB|def A2B|eee e2g|
fdd edd|dfd edB|def ABd|eee ede|
fdd edd|fff edB|def A2B|eee e2|
|:A|ddd ede|fdB AAA|ddd def|eee ed^c|
ddd ^cdc|BdB Afe|def A2B|eee e2:|

